public/images/twitter.svg

<?xml version="1.0" encoding="UTF-8"?>
<svg width="28px" height="23px" viewBox="0 0 28 23" version="1.1" xmlns="http://www.w3.org/2000/svg" xmlns:xlink="http://www.w3.org/1999/xlink">
    <!-- Generator: Sketch 48.2 (47327) - http://www.bohemiancoding.com/sketch -->
    <title>twitter-logo-silhouette copy</title>
    <desc>Created with Sketch.</desc>
    <defs></defs>
    <g id="Page-1" stroke="none" stroke-width="1" fill="none" fill-rule="evenodd">
        <g id="Group-6" transform="translate(0.000000, -2.000000)" fill="#000000" fill-rule="nonzero">
            <g id="twitter-logo-silhouette-copy" transform="translate(0.000000, 2.000000)">
                <path d="M28,2.71115033 C26.9694444,3.16779739 25.8636732,3.4774902 24.7018562,3.61575163 C25.8881503,2.90536601 26.7962288,1.77859477 27.2266144,0.440084967 C26.1138431,1.09794771 24.885549,1.57564052 23.5767778,1.83459477 C22.5287451,0.716562092 21.0380196,0.0201764706 19.3845556,0.0201764706 C16.2124118,0.0201764706 13.6403922,2.59219608 13.6403922,5.76260131 C13.6403922,6.21224837 13.6911307,6.6514183 13.7891307,7.07137255 C9.01604575,6.83163399 4.78360784,4.54483007 1.95089542,1.06994771 C1.45572549,1.91681046 1.17403268,2.9035817 1.17403268,3.95692157 C1.17403268,5.94981699 2.18884967,7.70823529 3.72857516,8.73700654 C2.78723529,8.70552941 1.90189542,8.44657516 1.12681699,8.01614379 L1.12681699,8.08788235 C1.12681699,10.8698562 3.10745098,13.1916601 5.73368627,13.7200915 C5.25251634,13.8495686 4.74513072,13.9213072 4.22022222,13.9213072 C3.84931373,13.9213072 3.49062092,13.8845686 3.1389281,13.8145686 C3.87026797,16.0978954 5.99090196,17.7583137 8.50344444,17.8038366 C6.53854902,19.3435621 4.06100654,20.2586405 1.37003268,20.2586405 C0.906385621,20.2586405 0.44969281,20.2306405 4.57516339e-05,20.179902 C2.5423268,21.812366 5.56051634,22.764183 8.80439869,22.764183 C19.3706471,22.764183 25.1463333,14.0123072 25.1463333,6.42224837 L25.1270719,5.67864706 C26.2555817,4.87373856 27.2318758,3.86244444 28,2.71115033 Z" id="Shape"></path>
            </g>
        </g>
    </g>
</svg>

<svg width="28" height="23" xmlns="http://www.w3.org/2000/svg"><path d="M28 2.711a11.47 11.47 0 0 1-3.298.905A5.768 5.768 0 0 0 27.227.44a11.58 11.58 0 0 1-3.65 1.395A5.728 5.728 0 0 0 19.385.02a5.744 5.744 0 0 0-5.596 7.051A16.307 16.307 0 0 1 1.951 1.07a5.7 5.7 0 0 0-.777 2.887 5.741 5.741 0 0 0 2.555 4.78 5.744 5.744 0 0 1-2.602-.72v.07a5.75 5.75 0 0 0 4.607 5.633c-.481.13-.989.201-1.514.201-.37 0-.73-.036-1.081-.106a5.747 5.747 0 0 0 5.364 3.989 11.524 11.524 0 0 1-7.133 2.455c-.464 0-.92-.028-1.37-.08a16.236 16.236 0 0 0 8.804 2.585c10.567 0 16.342-8.752 16.342-16.342l-.019-.743A11.47 11.47 0 0 0 28 2.71z"/></svg>
